material/.icons/material/google-plus.svg

<svg xmlns="http://www.w3.org/2000/svg" viewBox="0 0 24 24"><path d="M23 11h-2V9h-2v2h-2v2h2v2h2v-2h2M8 11v2.4h4c-.2 1-1.2 3-4 3-2.4 0-4.3-2-4.3-4.4 0-2.4 1.9-4.4 4.3-4.4 1.4 0 2.3.6 2.8 1.1l1.9-1.8C11.5 5.7 9.9 5 8 5c-3.9 0-7 3.1-7 7s3.1 7 7 7c4 0 6.7-2.8 6.7-6.8 0-.5 0-.8-.1-1.2H8z"/></svg>

<?xml version="1.0" encoding="UTF-8"?><!DOCTYPE svg PUBLIC "-//W3C//DTD SVG 1.1//EN" "http://www.w3.org/Graphics/SVG/1.1/DTD/svg11.dtd"><svg xmlns="http://www.w3.org/2000/svg" xmlns:xlink="http://www.w3.org/1999/xlink" version="1.1" id="mdi-google-plus" width="24" height="24" viewBox="0 0 24 24"><path d="M23,11H21V9H19V11H17V13H19V15H21V13H23M8,11V13.4H12C11.8,14.4 10.8,16.4 8,16.4C5.6,16.4 3.7,14.4 3.7,12C3.7,9.6 5.6,7.6 8,7.6C9.4,7.6 10.3,8.2 10.8,8.7L12.7,6.9C11.5,5.7 9.9,5 8,5C4.1,5 1,8.1 1,12C1,15.9 4.1,19 8,19C12,19 14.7,16.2 14.7,12.2C14.7,11.7 14.7,11.4 14.6,11H8Z" /></svg>
